assets/icons/ic_circle_question.svg

<svg fill="none" height="12" viewBox="0 0 12 12" width="12" xmlns="http://www.w3.org/2000/svg"><path clip-rule="evenodd" d="m6 1.125c-2.69239 0-4.875 2.18261-4.875 4.875 0 2.69242 2.18261 4.875 4.875 4.875 2.69242 0 4.875-2.18258 4.875-4.875 0-2.69239-2.18258-4.875-4.875-4.875zm-6 4.875c0-3.31371 2.68629-6 6-6 3.31373 0 6 2.68629 6 6 0 3.31373-2.68627 6-6 6-3.31371 0-6-2.68627-6-6zm6.75 2.25c0 .41422-.33578.75-.75.75-.41421 0-.75-.33578-.75-.75 0-.41423.33579-.75.75-.75.41422 0 .75.33577.75.75zm-1.55938-3.68594c.06038-.12078.14212-.22443.25421-.29916.10857-.07237.2786-.1399.55517-.1399.20981 0 .41468.06492.55313.16875.12342.09256.19687.21382.19687.39375 0 .13246-.03061.19786-.05788.23876-.03401.05103-.09269.10745-.20728.18386-.05729.03819-.11893.07531-.19418.12046l-.0046.00276-.00002.00001c-.07027.04217-.15326.09196-.23481.14632-.16667.11113-.3658.26567-.51928.49592-.17231.25849-.10244.60772.15606.78004.25849.1723.60773.10243.78003-.15606.03402-.05105.0927-.10748.20728-.18387.05729-.03819.11893-.07531.19418-.12046l.00466-.0028.00004-.00002c.07024-.04215.1532-.09192.23471-.14627.16665-.11111.36579-.26562.51927-.49585.16027-.24034.24682-.52651.24682-.8628 0-.57007-.2703-1.01131-.64688-1.29375-.36156-.27117-.81294-.39375-1.22812-.39375-.47343 0-.8659.11997-1.17921.32885-.30979.20652-.5093.47787-.63641.73209-.13893.27786-.02631.61575.25156.75468.27786.13893.61575.0263.75468-.25156z" fill="#64748b" fill-rule="evenodd"/></svg>

<svg width="12" height="12" viewBox="0 0 12 12" fill="none" xmlns="http://www.w3.org/2000/svg">
<path fill-rule="evenodd" clip-rule="evenodd" d="M6 1.125C3.30761 1.125 1.125 3.30761 1.125 6C1.125 8.69242 3.30761 10.875 6 10.875C8.69242 10.875 10.875 8.69242 10.875 6C10.875 3.30761 8.69242 1.125 6 1.125ZM0 6C0 2.68629 2.68629 0 6 0C9.31373 0 12 2.68629 12 6C12 9.31373 9.31373 12 6 12C2.68629 12 0 9.31373 0 6ZM6.75 8.25C6.75 8.66422 6.41422 9 6 9C5.58579 9 5.25 8.66422 5.25 8.25C5.25 7.83577 5.58579 7.5 6 7.5C6.41422 7.5 6.75 7.83577 6.75 8.25ZM5.19062 4.56406C5.251 4.44328 5.33274 4.33963 5.44483 4.2649C5.5534 4.19253 5.72343 4.125 6 4.125C6.20981 4.125 6.41468 4.18992 6.55313 4.29375C6.67655 4.38631 6.75 4.50757 6.75 4.6875C6.75 4.81996 6.71939 4.88536 6.69212 4.92626C6.65811 4.97729 6.59943 5.03371 6.48484 5.11012C6.42755 5.14831 6.36591 5.18543 6.29066 5.23058L6.28606 5.23334L6.28604 5.23335C6.21577 5.27552 6.13278 5.32531 6.05123 5.37967C5.88456 5.4908 5.68543 5.64534 5.53195 5.87559C5.35964 6.13408 5.42951 6.48331 5.68801 6.65563C5.9465 6.82793 6.29574 6.75806 6.46804 6.49957C6.50206 6.44852 6.56074 6.39209 6.67532 6.3157C6.73261 6.27751 6.79425 6.24039 6.8695 6.19524L6.87416 6.19244L6.8742 6.19242C6.94444 6.15027 7.0274 6.1005 7.10891 6.04615C7.27556 5.93504 7.4747 5.78053 7.62818 5.5503C7.78845 5.30996 7.875 5.02379 7.875 4.6875C7.875 4.11743 7.6047 3.67619 7.22812 3.39375C6.86656 3.12258 6.41518 3 6 3C5.52657 3 5.1341 3.11997 4.82079 3.32885C4.511 3.53537 4.31149 3.80672 4.18438 4.06094C4.04545 4.3388 4.15807 4.67669 4.43594 4.81562C4.7138 4.95455 5.05169 4.84192 5.19062 4.56406Z" fill="#64748B"/>
</svg>
